X:1
T:Title
%%score { ( 1 3 4 ) | ( 2 5 6 ) }
L:1/8
M:4/4
K:Bb
V:1 treble nm="Grand Piano"
V:3 treble 
V:4 treble 
V:2 bass 
V:5 bass 
V:6 bass 
V:1
 z4 z2[Q:1/4=106] [DB]2 | A2 G2 F2 G2 | [DF]2 [DB]4 [DB]2 | A2 B2 c2 F2 | [Fd]6 [DB]2 | %5
 A2 G2 F2 G2 | [DF]2 [DB]4 [FB]2 | [Ec]2 [Fd]2 e-[Ee] z E | [DB]6 z2 | %9
 z2 B,>B, (3z GA (3[DB][CA][DB] | [Ec]4 [EG]2 z2 | [ce]6 z2 | [DF]4[K:bass] z4 | %13
 B,2 B,>B, (3z GA (3[DB][CA][DB] | [Ec]4 [EG]2 z2 | (3[ce]dc (3[GB]AG (3B,B,B, (3FAc | %16
[M:3/4] [DB]6 |] %17
V:2
 z4 z2 [B,,B,]2 | [F,CE]2 [F,CE]2 [F,CE]2 [F,A,E]2 | [B,,B,]2 [B,,B,]4 [B,,B,]2 | %3
 [F,C]2 [F,B,D]2 [F,A,E]2 [F,A,]2 | [B,,B,]6 [B,,B,]2 | [F,CE]2 [F,CE]2 [F,CE]2 [F,A,E]2 | %6
 [B,,B,]2 [B,,B,]4 [D,B,]2 | [E,G,]2 [D,B,]2 [C,G,]2 .[F,F]2 | [B,,F,]6 z2 | %9
 [B,,B,]2 B,,>B,, (3z EE (3:2:2[B,,B,]2 [B,,B,] | [E,G,]2 E,>E, E,E, z2 | %11
 [F,A,]2 F,>F, (3z[K:treble] BA[K:bass] (3[F,A,]-[F,A,F]F, | B,,2 B,,>B,, [B,,F,B,]2 B,,2 | %13
 B,,2 B,,>B,, (3z EE (3:2:2[B,,B,]2 [B,,B,] | [E,G,]<E, E,>E, E,<E, z2 | %15
 (3z[K:treble] BA (3z FE[K:bass] (3F,F,F, (3[F,A,E][F,A,E][F,A,E] |[M:3/4] [B,,B,]6 |] %17
V:3
 x8 | x8 | x8 | x8 | x8 | x8 | x8 | z4 .G2 A2 | x8 | [DF]6 z2 | z2 G,>G, B,B, G,2 | %11
 z2 A,>A, (3z dc (3[GB]A[A,EG] | B,2[K:bass] B,>B, D2 F,2 | [DF]6 z2 | z/ G,3/2 G,>G, B,<B, G,2 | %15
 z2 z z/ A,/ [DF]2 z2 |[M:3/4] x6 |] %17
V:4
 x8 | x8 | x8 | x8 | x8 | x8 | x8 | x8 | x8 | z4 B,2 z2 | x8 | z4 A,2 z2 | x2[K:bass] x6 | %13
 z4 B,2 z2 | x8 | x8 |[M:3/4] x6 |] %17
V:5
 x8 | x8 | x8 | x8 | x8 | x8 | x8 | x8 | x8 | z4 B,,2 z2 | x8 | z4 F,2[K:treble][K:bass] z2 | x8 | %13
 z4 B,,2 z2 | x8 | A,2[K:treble] A,>[K:bass]F, z4 |[M:3/4] x6 |] %17
V:6
 x8 | x8 | x8 | x8 | x8 | x8 | x8 | x8 | x8 | x8 | x8 | x14/3[K:treble] x4/3[K:bass] x2 | x8 | x8 | %14
 x8 | F,2[K:treble] F,2[K:bass] z4 |[M:3/4] x6 |] %17

